X:1
T:Title
%%score { 1 | 2 }
L:1/8
M:4/4
K:G
V:1 treble nm="Grand Piano"
V:2 bass 
V:1
 z4 z2[Q:1/4=104] D>D | [B,DG]2 [G,DG]>[B,DG] [B,DG]2 [DG]>[DFA] | [DGB]2 [DGB]2 [DGB]4 | %3
 d2 d2 B>A G2 |[M:3/4] [GB]4 [FA]2 |[M:1/4] [CD]>[CD] | %6
[M:4/4] [B,DG]2 [G,DG]>[B,DG] [B,DG]2 [DG]>[DFA] | [DGB]2 [DGB]2 [DGB]4 | d2 d2 B>A G2 | %9
 [FA]4 [DG]2 z2 | [Ge]2 [Ge]2 [EGc]>[DGd] [Ge]2 | d4 B4 | d2 d2 B>A G2 | [GB]4 [FA]2 D>D | %14
 G2 G>G G2 G>A | B2 B2 B4 | d2 d2 B>A G2 |[M:3/4] [FA]4 [B,DG]2 |] %18
V:2
 z4 z2 D,>D, | G,,2 B,,>D, G,2 B,>A, | G,2 D,B,, G,,4 | [G,B,G]2 [G,B,G]2 [G,DG]>[G,CD] [G,B,D]2 | %4
[M:3/4][K:bass] [D,D]4 [D,D]2 |[M:1/4] D,>D, |[M:4/4] G,,2 B,,>D, G,2 B,>A, | G,2 D,B,, G,,4 | %8
 [G,B,G]2 [G,B,G]2 [G,DG]>[G,CD] [G,B,D]2 | [D,C]4 [G,B,]2 z2 | [C,C]2 [C,C]2 C,>C, [C,C]2 | %11
 [G,B,G]4 [G,DG]4 | [G,B,G]2 [G,B,G]2 [G,DG]>[K:bass][G,CD] [G,B,D]2 | [D,D]4 [D,D]2 [D,C]>[F,C] | %14
 [G,B,D]2 [G,B,D]>[G,B,D] [G,B,D]2 [G,B,D]>[G,CD] | [G,DG]2 [G,DG]2 [G,DG]4 | %16
 [G,B,G]2 [G,B,G]2 [G,DG]>[K:bass][G,CD] [G,B,D]2 |[M:3/4] [D,C]4 [G,,G,]2 |] %18

